flaticon/symbols/hypocrisy.svg

<svg xmlns="http://www.w3.org/2000/svg" width="32" height="32" viewBox="0 0 24 24">
    <path d="M 18.398438 6.398438 L 17.601562 6.398438 L 17.601562 5.601562 C 17.601562 2.511719 15.089844 0 12 0 C 8.910156 0 6.398438 2.511719 6.398438 5.601562 L 6.398438 6.398438 L 5.601562 6.398438 C 2.511719 6.398438 0 8.910156 0 12 C 0 15.089844 2.511719 17.601562 5.601562 17.601562 L 6.398438 17.601562 L 6.398438 18.398438 C 6.398438 21.488281 8.910156 24 12 24 C 15.089844 24 17.601562 21.488281 17.601562 18.398438 L 17.601562 17.601562 L 18.398438 17.601562 C 21.488281 17.601562 24 15.089844 24 12 C 24 8.910156 21.488281 6.398438 18.398438 6.398438 Z M 17.601562 10 L 18.398438 10 C 19.503906 10 20.398438 10.898438 20.398438 12 C 20.398438 13.101562 19.503906 14 18.398438 14 L 17.601562 14 Z M 7.199219 5.601562 C 7.199219 2.953125 9.351562 0.800781 12 0.800781 C 14.648438 0.800781 16.800781 2.953125 16.800781 5.601562 L 16.800781 14 L 14.800781 14 L 14.800781 5.601562 C 14.800781 4.054688 13.542969 2.800781 12 2.800781 C 10.457031 2.800781 9.199219 4.054688 9.199219 5.601562 L 9.199219 6.398438 L 7.199219 6.398438 Z M 14 5.601562 L 14 6.398438 L 10 6.398438 L 10 5.601562 C 10 4.496094 10.898438 3.601562 12 3.601562 C 13.101562 3.601562 14 4.496094 14 5.601562 Z M 6.398438 14 L 5.601562 14 C 4.496094 14 3.601562 13.101562 3.601562 12 C 3.601562 10.898438 4.496094 10 5.601562 10 L 6.398438 10 Z M 5.601562 9.199219 C 4.054688 9.199219 2.800781 10.457031 2.800781 12 C 2.800781 13.542969 4.054688 14.800781 5.601562 14.800781 L 6.398438 14.800781 L 6.398438 16.800781 L 5.601562 16.800781 C 2.953125 16.800781 0.800781 14.648438 0.800781 12 C 0.800781 9.351562 2.953125 7.199219 5.601562 7.199219 L 14 7.199219 L 14 9.199219 Z M 14 10 L 14 14 L 10 14 L 10 10 Z M 10 17.601562 L 14 17.601562 L 14 18.398438 C 14 19.503906 13.101562 20.398438 12 20.398438 C 10.898438 20.398438 10 19.503906 10 18.398438 Z M 16.800781 18.398438 C 16.800781 21.046875 14.648438 23.199219 12 23.199219 C 9.351562 23.199219 7.199219 21.046875 7.199219 18.398438 L 7.199219 10 L 9.199219 10 L 9.199219 18.398438 C 9.199219 19.945312 10.457031 21.199219 12 21.199219 C 13.542969 21.199219 14.800781 19.945312 14.800781 18.398438 L 14.800781 17.601562 L 16.800781 17.601562 Z M 18.398438 16.800781 L 10 16.800781 L 10 14.800781 L 18.398438 14.800781 C 19.945312 14.800781 21.199219 13.542969 21.199219 12 C 21.199219 10.457031 19.945312 9.199219 18.398438 9.199219 L 17.601562 9.199219 L 17.601562 7.199219 L 18.398438 7.199219 C 21.046875 7.199219 23.199219 9.351562 23.199219 12 C 23.199219 14.648438 21.046875 16.800781 18.398438 16.800781 Z M 18.398438 16.800781"/>
</svg>

<svg xmlns="http://www.w3.org/2000/svg" width="32" height="32" viewBox="0 0 24 24">
    <path d="M18.398 6.398h-.796v-.796A5.606 5.606 0 0 0 12 0a5.606 5.606 0 0 0-5.602 5.602v.796h-.796A5.606 5.606 0 0 0 0 12a5.606 5.606 0 0 0 5.602 5.602h.796v.796A5.606 5.606 0 0 0 12 24a5.606 5.606 0 0 0 5.602-5.602v-.796h.796A5.606 5.606 0 0 0 24 12a5.606 5.606 0 0 0-5.602-5.602zM17.602 10h.796c1.106 0 2 .898 2 2 0 1.102-.894 2-2 2h-.796zM7.199 5.602C7.2 2.953 9.352.8 12 .8s4.8 2.152 4.8 4.8V14h-2V5.602C14.8 4.055 13.544 2.8 12 2.8a2.803 2.803 0 0 0-2.8 2.8v.797h-2zm6.801 0v.796h-4v-.796c0-1.106.898-2 2-2 1.102 0 2 .894 2 2zM6.398 14h-.796c-1.106 0-2-.898-2-2 0-1.102.894-2 2-2h.796zm-.796-4.8A2.803 2.803 0 0 0 2.8 12c0 1.543 1.254 2.8 2.8 2.8h.797v2h-.796A4.805 4.805 0 0 1 .8 12c0-2.648 2.152-4.8 4.8-4.8H14v2zM14 10v4h-4v-4zm-4 7.602h4v.796c0 1.106-.898 2-2 2-1.102 0-2-.894-2-2zm6.8.796c0 2.649-2.152 4.801-4.8 4.801a4.805 4.805 0 0 1-4.8-4.8V10h2v8.398c0 1.547 1.257 2.801 2.8 2.801s2.8-1.254 2.8-2.8v-.797h2zm1.598-1.597H10v-2h8.398c1.547 0 2.801-1.258 2.801-2.801 0-1.543-1.254-2.8-2.8-2.8h-.797v-2h.796c2.649 0 4.801 2.152 4.801 4.8 0 2.648-2.152 4.8-4.8 4.8zm0 0"/>
</svg>
